X:1
T:[ID 2-50b]
T:[ID 2-50b]
T:Bezeichnung standardisiert: Menuett Men\"uet 10.
T:Urheber unbekannt Datum in der hier transkribierten schriftlichen Quelle: 1767
C:Urheber unbekannt
C:Datum in der hier transkribierten schriftlichen Quelle: 1767
L:1/8
M:3/4
K:D
V:1 treble 
V:1
 D2 D2 D2 | (3DCB, A,4 | DFAdcB | A2 G2 F2 | (3fed d4 | (3edc c4 | eaedcB | A6 :: A2 A2 A2 | %9
 (3ABF G4 | DFAd fa | e2 dcBA | (3agf g2 b2 | (3gfe f2 a2 | Bgbgec | d6 :| %16

